X:1
T:Una rosa è'l ben mio
T:Benedetto Ferrari
T:Source : Musiche varia a voce sola---Libro terzo---Venetia---B.Magni---1641. Editor : André Vierendeels (18/01/17).
T:Notes : Original clefs : C1, F4 Original note values have been halved Figures in BC are notated in original print
T:Una rosa è'l ben mio
T:©
T:©
T:©
T:©
C:Benedetto Ferrari
Z:©
%%score 1 2
L:1/8
Q:1/4=120
M:6/4
K:F
V:1 treble-8 nm="Tenor" snm="T"
V:2 bass nm="MusicXML Part"
V:1
 z2 z2 AB c2 B3 A | A2 A2 F2 B3 A GF | G3 G TF3/2 E/ D A/B/ c4- | c2 TB4- B3 BAB | %4
w: U- na ro- sa'e'l ben|mi- o di quel- le d'a- *|do- ra- * re _ e _ _|_ non _ da o- do-|
w: Ro- sa, fior di mia|vi- ta va- ghis- si- mo _|dem mon- * do, _ _ mi- *|* ra- * co- lo gio-|
w: O bel- lis- si- ma|ro- sa pri- a che ti _|sfron- din gli'an- ni _ _ tem- *|* pra'i _ miei du- ri'af-|
 AB cc B>A- G2 G2 A2 | B2 TA3 G A2 c2 d2 | _e2 Td3 c d2 z d/e/ f2 | _e4 d4 d4 | c2 G2 A2 B2 A3 G | %9
w: ra- * * * * re, _ che s'un|ba- cio le dai, che s'un|ba- cio le dai, di _ _|ven- ti un|..... che s'un ba- cio le|
w: con- * * * * do, _ ro- sa|si be- la mai non è|fio- ri- * ta, ah mi _|pun- ga- no'il|cor, ro- sa si bel- la|
w: an- * * * * ni, _ fia tuo|ste- lo'il mio sen ro- sa|vez- zo- * sa, ah _ miei|fol- li de-|si- ri, fia tuo ste- lo'il|
 A2 c2 d2 _e2 d3 c | d2 z2 g2 G4 G2- | G2 G4 F6 :: f4 _e2 z e/f/ g2 f2 | _e3 e d2 Td4 c2- | %14
w: dai, che s'un ba- cio- le|dai, di ven- ti|_ un ........|O _ O _ _ gran|do- no del fa- to|
w: mai non è fio- ri- *|t'ah mi pun- ga-|* no'il cor,|Ah, _ Ah _ _ mi|_ pun- ga- no'il cor,|
w: mio sen ro- sa vez- zo-|sa, ro- sa vez-|* zo- sa,|Ah, _ Ah _ _ miei|fol- li de- si- ri,|
 d4 z2 D2 D2 D2 | A2 A2 d2 G3 FGA | BA GA Bc dc Bc de | fd _ef g2- g4 ed | Td4 d2 c4 C2 | %19
w: _ im- mor- tal|ve- lo fe- li- ce va- gheg-|gar _ _ _ _ _ _ _ _ _ _ _|ro- * * * * * sa del|Cie- lo, _ fe-|
w: _ le vo- stre|pi- ne che non dan- no do-|lor _ _ _ _ _ _ _ _ _ _ _|pian- * * * * * ghe di-|vi- ne, _ che|
w: _ io vi fo|cer- ti che le ro- se non|a- * * * * * * * * * * *|ma- * * * * * no'i de-|ser- ti, _ che|
 G3 FGA BA GA Bc | dc Bc de fe dc BA | Gc de f2- f4 AG | TG4 G2 !fermata!F6 :| %23
w: li- ce va- gheg- gar _ _ _ _ _|_ _ _ _ _ _ _ _ _ _ _ _|* ro _ _ _ _ sa del|Cie- lo. _|
w: non dan- no do- lor _ _ _ _ _|_ _ _ _ _ _ _ _ _ _ _ _|* pia- * * * * ghe di-|vi- ne. _|
w: le ro- se non a- * * * * *||* ma- * * * * no'i de-|ser- ti. _|
V:2
"^BC" z2 F,4 E,6 | F,3 E, D,C, D,6 | _E,3 F, G,A, B,6 |"^6" A,6 G,6 | F,6 C2 C,4 | D,2 E,4 F,6 | %6
 G,2 A,4 B,2 D,4 | _E,4 F,4 G,4 | C,6 D,2 E,4 | F,6 G,2 A,4 | B,2 C,4 D,4 B,,2- | B,,2 C,4 F,6 :: %12
 F,,6 C,4 D,2 | _E,4 F,2 G,2 A,4 | B,3 A, G,F, G,6 | F,6 _E,6 | D,4 C,2 B,,6 | %17
"^#""^6""^5" A,,6 G,,2 F,,4 | G,,6 C,6 | B,,2 A,,4 G,,4 A,,2 | B,,4 C,2 D,6 | E,6 F,2 B,,4 | %22
 C,6 !fermata!F,,6 :| %23

